T: Gan Ainm
M: 2/4
L: 1/8
K: Dmaj
DF/A/ df | ed Bd | Ad Fd | AG/F/ EF/E/ |DF/A/ df | e/f/e/d/ Bd | Ad EF/G/ | FD D :| fg/f/ ed | Bd Ad | fg/f/ ed | e2 eA/d/ |fg/f/ ed | Bd Ad | Fd EF/G/ | FD D :| ~ | f/g/a ba | ~ or ~ | f/g/a/f/ ba/g/ | ~
